!!!SOCIAL_FUNCTION:	deer dance songs
!!!PDT:	1932
!!!OTL: No_87_The_Deer_Are_At_Play.krn
!!!REG: Southwest
!!!LANG: Non-Tone
!!!LING_GROUP: Yuman-Cochimi
**kern
*staff1
=1-
=
*clefF4
*k[f#c#g#d#]
*M2/4
8G#\L
8G#\J
8.G#\L
16G#\Jk
=2
8.B\L
16G#\Jk
12G#\L
12F#\
12F#\J
=3||
*M3/4
8F#\L
8E\J
4E\
4r
=4||
*M2/4
8.B\L
16G#\Jk
8G#\L
8G#\J
=5
8G#\L
8F#\J
8F#\L
8E\J
=6
8E\
8r
12E/L
12C#/
12C#/J
=7
8C#/L
8C#/J
8.C#/L
16BB/Jk
=8
8BB/L
8G#/J
4F#\
=9||
*M3/4
8F#\L
8E\J
4E\
8E/L
16C#/L
16C#/JJ
=10||
*M2/4
8C#/L
8C#/J
8C#/
8r
=11
8F#\L
8E\J
8E\L
8E\J
=12
4E\
8E\L
8E\J
=13
4E\
4r
=14:|!
2r
=15
8G#\L
8G#\J
8.G#\L
16G#\Jk
=16
8B\L
8B\J
8G#\L
8G#\J
=17
8.G#\L
16G#\Jk
8G#\L
8F#\J
=18
8F#\L
8E\J
4E\
=19||
*M3/4
2r
4r
=20||
*M2/4
8B\L
8G#\J
12G#\L
12F#\
12F#\J
=21||
*M3/4
8F#\L
8E\J
4E\
4r
=22||
*M2/4
8B\L
8G#\J
8G#\L
8G#\J
=23
8G#\L
8F#\J
8F#\L
8E\J
=24
8E\
8r
12E/L
12C#/
12C#/J
=25
8C#/L
8C#/J
8.C#/L
16BB/Jk
=26
8BB/L
8G#/J
4F#\
=27||
*M3/4
8F#\L
8E\J
4E\
8E/L
16C#/L
16C#/JJ
=28||
*M2/4
8C#/L
8C#/J
8C#/
8r
=29
8F#\L
8E\J
8E\L
8E\J
=30
4E\
8E\L
8E\J
=31
4E\
4r
==
*-
